X:1725
T:Dusty Windowsills
O:england
M:6/8
L:1/8
Q:200
C:Trad Irish
R:jig
K:A Dor
z|A2 B cBA|eAB cBA|FGG EGG|DGG EGG|
A2 B cBA|e2 d efg|age dBG|BAG A2:|
g|a3 age|def g2 f|g3 gfe|dBG GFG|
EGG DGG|EGG ABc|Bed BAG|BAG A2:|
z|ABA gAf|ABA edB|GAG eGd|GAG edB|
ABA gAf|ABA efg|age dBG|BAG A2:||


